!!!COM: Palestrina, Giovanni Perluigi da
!!!OPR: Missa In duplicibus minoribus (I)
!!!OMD: Credo
!!!OTL: Et incarnatus
**kern	**kern	**kern	**kern	**kern
*Ibass	*Itenor	*Itenor	*Icalto	*Icant
!Bassus	!Tenor 2	!Tenor 1	!Altus	!Cantus
*clefF4	*clefGv2	*clefGv2	*clefG2	*clefG2
*k[]	*k[]	*k[]	*k[]	*k[]
*E:phr	*E:phr	*E:phr	*E:phr	*E:phr
*M4/2	*M4/2	*M4/2	*M4/2	*M4/2
=62	=62	=62	=62	=62
0r	0r	0r	1e	1r
.	.	.	1d	1a
=63	=63	=63	=63	=63
0r	0r	0r	1e	1g
.	.	.	2d	1a
.	.	.	2c	.
=64	=64	=64	=64	=64
0r	0r	1r	4B	2g
.	.	.	4c	.
.	.	.	1d	2f
.	.	1A	.	2.e
.	.	.	2c	.
.	.	.	.	4f
=65	=65	=65	=65	=65
0r	1d	1G	1B	4g
.	.	.	.	4a
.	.	.	.	2b
.	1c	1A	2r	4a
.	.	.	.	4b
.	.	.	2e	4cc
.	.	.	.	4a
=66	=66	=66	=66	=66
1r	1d	2G	2g	2b
.	.	2F	2d	1a
1E	2c	1E	2.e	.
.	2B	.	.	2g#
.	.	.	4d	.
=67	=67	=67	=67	=67
1.A	1A	2r	4c	1a
.	.	.	4B	.
.	.	2A	1c	.
.	1r	1e	.	2r
2G	.	.	2B	[2e
=68	=68	=68	=68	=68
1A	2r	2c	1e	2e]
.	2A	2c	.	1a
1B	[1d	1d	1r	.
.	.	.	.	2g
=69	=69	=69	=69	=69
1A	2d]	1e	2r	1a
.	2c	.	1a	.
1r	2d	1r	.	1b
.	2e	.	2g	.
=70	=70	=70	=70	=70
2r	1A	0r	2f	1a
1A	.	.	2e	.
.	2r	.	2f	1r
2G	[2e	.	2g	.
=71	=71	=71	=71	=71
1F	2e]	2r	1a	0r
.	2d	1A	.	.
1E	2c	.	1r	.
.	2B	2G	.	.
=72	=72	=72	=72	=72
1AA	2c	2F	1r	1.a
.	2c	2E	.	.
2D	1d	2F	2r	.
2BB	.	2G	[2d	2g
=73	=73	=73	=73	=73
1AA	0r	1A	4d]	2f
.	.	.	8c	.
.	.	.	8B	.
.	.	.	2c	2e
2D	.	1r	2d	2f
2E	.	.	2B	2g
=74	=74	=74	=74	=74
2.F	2r	0r	1A	[0a
.	2A	.	.	.
4G	.	.	.	.
1A	2.c	.	2r	.
.	.	.	2A	.
.	4d	.	.	.
=75	=75	=75	=75	=75
0r	1e	1A	2.c	0a]
.	.	.	4d	.
.	2c	1A	2e	.
.	[2d	.	[2f	.
=76	=76	=76	=76	=76
0r	4d]	1A	2f]	0r
.	8c	.	.	.
.	8B	.	.	.
.	1c	.	1e	.
.	.	1G	.	.
.	2B	.	4d	.
.	.	.	4c	.
=77	=77	=77	=77	=77
1r	2A	1F	2d	1a
.	2A	.	2d	.
1AA	2.c	1E	[1e	1a
.	4d	.	.	.
=78	=78	=78	=78	=78
2C	2e	1r	2e]	1a
2D	1f	.	4d	.
.	.	.	4c	.
2E	.	2r	2B	1g
2C	[2e	2E	2c	.
=79	=79	=79	=79	=79
0D	2e]	2.F	1.A	0f
.	4d	.	.	.
.	4c	4G	.	.
.	2d	[1A	.	.
.	2d	.	2A	.
=80	=80	=80	=80	=80
1AA	4e	1A]	1c	[0e
.	4d	.	.	.
.	4c	.	.	.
.	4B	.	.	.
1AA	1A	1E	1c	.
=81	=81	=81	=81	=81
[0E	[0G#	[0E	[0B	1e_
.	.	.	.	1e_
=82	=82	=82	=82	=82
0E]	0G#]	0E]	0B]	0e]
*-	*-	*-	*-	*-
!!!CDT: 1525/^1526/-1594/2/2
!!!OCY: Italia
!!!AGN: Mass (Paraphrase)
!!!AST: renaissance, vocal
!!!ASW: Gregorian Mass
!!!PWK: Masses, Book Mantuan I
!!!RNB: Cadence finals: A
!!!YOR: Le Opere Complete, v. 18, p. 42
!!!YOO: Rome, Italy: Fratelli Scalera
!!!END: 1992//
!!!EED: John Miller
!!!YEC: Copyright 2000, John Miller
!!!YEN: United States of America
!!!YEM: Rights to all derivative electronic formats reserved.
!!!YEM: Refer to licensing agreement for further details.
!!!YEM: This file must be accompanied by the licensing agreement.
!!!YEM: A copy of the licensing agreement may be found at http://www.music-cog.ohio-state.edu/HumdrumDatabases/Palestrina/license.txt
!!!EMD: converted to Humdrum by Bret Aarden
